svgs/sharp-light/joystick.svg

<svg xmlns="http://www.w3.org/2000/svg" viewBox="0 0 448 512"><!--! Font Awesome Pro 6.6.0 by @fontawesome - https://fontawesome.com License - https://fontawesome.com/license (Commercial License) Copyright 2024 Fonticons, Inc. --><path d="M304 112a80 80 0 1 0 -160 0 80 80 0 1 0 160 0zm32 0c0 56.4-41.7 103.1-96 110.9l0 97.1-32 0 0-97.1c-54.3-7.8-96-54.4-96-110.9C112 50.1 162.1 0 224 0s112 50.1 112 112zM64 288l16 0 32 0 16 0 0 32-16 0-32 0-16 0 0-32zM416 480l0-96L32 384l0 96 384 0zM32 352l384 0 32 0 0 32 0 96 0 32-32 0L32 512 0 512l0-32 0-96 0-32 32 0zM208 56a24 24 0 1 1 0 48 24 24 0 1 1 0-48z"/></svg>

<svg xmlns="http://www.w3.org/2000/svg" viewBox="0 0 448 512"><!--! Font Awesome Pro 6.4.2 by @fontawesome - https://fontawesome.com License - https://fontawesome.com/license (Commercial License) Copyright 2023 Fonticons, Inc. --><path d="M304 112a80 80 0 1 0 -160 0 80 80 0 1 0 160 0zm32 0c0 56.4-41.7 103.1-96 110.9V320H208V222.9c-54.3-7.8-96-54.4-96-110.9C112 50.1 162.1 0 224 0s112 50.1 112 112zM64 288H80h32 16v32H112 80 64V288zM416 480V384H32v96H416zM32 352H416h32v32 96 32H416 32 0V480 384 352H32zM208 56a24 24 0 1 1 0 48 24 24 0 1 1 0-48z"/></svg>
